src/assets/logo_dark.svg

<svg width="197" height="46" viewBox="0 0 197 46" fill="none" xmlns="http://www.w3.org/2000/svg">
<path d="M90.8529 34.701V17.5617H84.14V13.5786H102.421V17.5617H95.7077V34.701H90.8529Z" fill="white"/>
<path d="M104.352 34.701V18.467H108.817V23.0535L108.188 21.7258C108.667 20.5792 109.436 19.7142 110.495 19.1308C111.554 18.5273 112.843 18.2256 114.361 18.2256V22.5707C114.161 22.5506 113.982 22.5406 113.822 22.5406C113.662 22.5204 113.492 22.5104 113.312 22.5104C112.034 22.5104 110.995 22.8825 110.196 23.6268C109.416 24.351 109.027 25.4876 109.027 27.0366V34.701H104.352Z" fill="white"/>
<path d="M125.977 34.701V31.5326L125.677 30.8386V25.1658C125.677 24.1599 125.367 23.3754 124.748 22.8121C124.149 22.2489 123.22 21.9672 121.961 21.9672C121.102 21.9672 120.253 22.1081 119.414 22.3897C118.595 22.6512 117.895 23.0133 117.316 23.476L115.638 20.1869C116.517 19.5633 117.576 19.0805 118.814 18.7385C120.053 18.3966 121.312 18.2256 122.59 18.2256C125.048 18.2256 126.956 18.8089 128.314 19.9757C129.673 21.1425 130.352 22.963 130.352 25.4373V34.701H125.977ZM121.062 34.9424C119.803 34.9424 118.725 34.7312 117.825 34.3087C116.926 33.8662 116.237 33.2727 115.758 32.5284C115.278 31.7841 115.038 30.9493 115.038 30.0239C115.038 29.0583 115.268 28.2134 115.728 27.4892C116.207 26.765 116.956 26.2018 117.975 25.7994C118.994 25.377 120.323 25.1658 121.961 25.1658H126.247V27.9117H122.471C121.372 27.9117 120.613 28.0927 120.193 28.4548C119.793 28.8169 119.594 29.2695 119.594 29.8127C119.594 30.4162 119.823 30.899 120.283 31.2611C120.762 31.603 121.412 31.774 122.231 31.774C123.01 31.774 123.709 31.593 124.329 31.2309C124.948 30.8487 125.397 30.2955 125.677 29.5713L126.396 31.7439C126.057 32.7899 125.437 33.5845 124.538 34.1277C123.639 34.6708 122.481 34.9424 121.062 34.9424Z" fill="white"/>
<path d="M134.583 34.701V18.467H139.258V34.701H134.583ZM136.921 16.2039C136.062 16.2039 135.362 15.9524 134.823 15.4495C134.284 14.9466 134.014 14.323 134.014 13.5786C134.014 12.8343 134.284 12.2107 134.823 11.7078C135.362 11.2049 136.062 10.9534 136.921 10.9534C137.78 10.9534 138.479 11.1948 139.019 11.6776C139.558 12.1403 139.828 12.7438 139.828 13.4881C139.828 14.2727 139.558 14.9265 139.019 15.4495C138.499 15.9524 137.8 16.2039 136.921 16.2039Z" fill="white"/>
<path d="M153.8 18C155.078 18 156.217 18.2615 157.216 18.7845C158.235 19.2875 159.034 20.072 159.613 21.1382C160.193 22.1842 160.482 23.532 160.482 25.1816V34.4754H155.807V25.9058C155.807 24.5982 155.518 23.6326 154.938 23.009C154.379 22.3854 153.58 22.0736 152.541 22.0736C151.802 22.0736 151.132 22.2345 150.533 22.5564C149.954 22.8581 149.494 23.3309 149.155 23.9746C148.835 24.6183 148.675 25.4431 148.675 26.4489V34.4754H144V18.2414H148.465V22.7374L147.626 21.3796C148.206 20.2933 149.035 19.4584 150.113 18.8751C151.192 18.2917 152.421 18 153.8 18Z" fill="#2176FF"/>
<path d="M166.465 40.5707C165.626 40.5707 164.797 40.44 163.978 40.1785C163.159 39.9169 162.49 39.5548 161.97 39.0922L163.678 35.7428C164.038 36.0646 164.447 36.3161 164.907 36.4971C165.386 36.6782 165.856 36.7687 166.315 36.7687C166.975 36.7687 167.494 36.6078 167.874 36.2859C168.273 35.9842 168.633 35.4712 168.953 34.747L169.792 32.7555L170.151 32.2425L175.935 18.2414H180.43L173.148 35.4712C172.629 36.7788 172.029 37.8047 171.35 38.549C170.691 39.2933 169.952 39.8164 169.132 40.1181C168.333 40.4198 167.444 40.5707 166.465 40.5707ZM169.222 35.1091L162.03 18.2414H166.855L172.429 31.82L169.222 35.1091Z" fill="#2176FF"/>
<path d="M191.701 34.4754V31.3071L191.401 30.613V24.9402C191.401 23.9344 191.091 23.1498 190.472 22.5866C189.873 22.0233 188.944 21.7417 187.685 21.7417C186.826 21.7417 185.977 21.8825 185.138 22.1641C184.319 22.4256 183.619 22.7877 183.04 23.2504L181.362 19.9614C182.241 19.3377 183.3 18.855 184.538 18.513C185.777 18.171 187.036 18 188.314 18C190.772 18 192.68 18.5834 194.038 19.7501C195.397 20.9169 196.076 22.7374 196.076 25.2118V34.4754H191.701ZM186.786 34.7168C185.527 34.7168 184.448 34.5056 183.549 34.0831C182.65 33.6406 181.961 33.0471 181.482 32.3028C181.002 31.5585 180.762 30.7237 180.762 29.7983C180.762 28.8327 180.992 27.9878 181.452 27.2637C181.931 26.5395 182.68 25.9762 183.699 25.5739C184.718 25.1514 186.047 24.9402 187.685 24.9402H191.97V27.6861H188.194C187.096 27.6861 186.336 27.8671 185.917 28.2292C185.517 28.5913 185.318 29.044 185.318 29.5871C185.318 30.1906 185.547 30.6734 186.007 31.0355C186.486 31.3775 187.136 31.5485 187.955 31.5485C188.734 31.5485 189.433 31.3674 190.052 31.0053C190.672 30.6231 191.121 30.0699 191.401 29.3457L192.12 31.5183C191.781 32.5644 191.161 33.359 190.262 33.9021C189.363 34.4452 188.204 34.7168 186.786 34.7168Z" fill="#2176FF"/>
<path fill-rule="evenodd" clip-rule="evenodd" d="M4.95811 4.6046C5.05088 4.34607 5.29461 4.1738 5.56763 4.1738H22.701C23.059 4.1738 23.3491 4.46596 23.3491 4.82636V11.5328L31.3346 15.3224L39.3541 11.5322V4.82636C39.3541 4.46596 39.6442 4.1738 40.0022 4.1738H57.0655C57.3386 4.1738 57.5823 4.34606 57.6751 4.6046L62.5945 18.3136C62.7085 18.6312 62.563 18.9839 62.2591 19.1267L44.6193 27.4154L31.8646 45.7222C31.6066 46.0926 31.0616 46.0926 30.8035 45.7222L18.049 27.4155L0.374585 19.1268C0.0703967 18.9842 -0.0753444 18.6313 0.0386906 18.3135L4.95811 4.6046ZM5.89258 5.29247L1.22746 18.2927L18.6304 26.4541C18.7335 26.5025 18.8221 26.5772 18.8874 26.6709L31.3341 44.5358L43.7808 26.6709C43.846 26.5773 43.9345 26.5027 44.0373 26.4543L61.4058 18.2931L56.7406 5.29247H40.4651V11.8283C40.4651 12.0813 40.3198 12.3115 40.0924 12.419L31.6095 16.4282C31.4348 16.5108 31.2325 16.5107 31.0579 16.4278L22.6099 12.4187C22.3829 12.311 22.2381 12.0811 22.2381 11.8284V5.29247H5.89258Z" fill="#2176FF"/>
<path fill-rule="evenodd" clip-rule="evenodd" d="M20.2752 27.1494C20.2164 27.0651 20.2365 26.9488 20.3202 26.8896L20.926 26.4606C21.0097 26.4014 21.1252 26.4217 21.184 26.5059L31.1638 40.7958C31.2376 40.9015 31.3933 40.9014 31.4669 40.7955L41.4025 26.507C41.4611 26.4227 41.5766 26.4022 41.6604 26.4612L42.2671 26.889C42.3509 26.948 42.3713 27.0643 42.3126 27.1486L31.4689 42.7431C31.3953 42.849 31.2396 42.8491 31.1658 42.7434L20.2752 27.1494Z" fill="#2176FF"/>
<path fill-rule="evenodd" clip-rule="evenodd" d="M55.3579 7.45756C55.3323 7.38207 55.2619 7.33134 55.1827 7.33134H48.6067C48.5044 7.33134 48.4215 7.24786 48.4215 7.14489V6.39911C48.4215 6.29614 48.5044 6.21266 48.6067 6.21266H55.9774C56.0566 6.21266 56.1271 6.2634 56.1527 6.33888L57.4977 10.3069C57.5308 10.4044 57.4791 10.5103 57.3823 10.5436L56.6814 10.7845C56.5846 10.8178 56.4793 10.7657 56.4463 10.6683L55.3579 7.45756Z" fill="#2176FF"/>
<path fill-rule="evenodd" clip-rule="evenodd" d="M2.49756 17.862C2.40926 17.8208 2.36771 17.7178 2.40246 17.6263L3.90532 13.6682C3.94183 13.572 4.04888 13.5238 4.1444 13.5606L4.83624 13.8269C4.93176 13.8637 4.97959 13.9715 4.94307 14.0677L3.81055 17.0504C3.7758 17.1419 3.81735 17.2449 3.90565 17.2861L9.43519 19.8665C9.52798 19.9098 9.56834 20.0207 9.52533 20.1141L9.21388 20.7908C9.17088 20.8842 9.0608 20.9248 8.96802 20.8815L2.49756 17.862Z" fill="#2176FF"/>
<path fill-rule="evenodd" clip-rule="evenodd" d="M31.3171 1.16826L25.5301 3.93288V10.3791L31.3171 13.1225L37.0336 10.425V3.88695L31.3171 1.16826ZM31.0389 0.0629922C31.2143 -0.0208264 31.4179 -0.0210059 31.5935 0.0625068L37.7734 3.00156C38.0001 3.10938 38.1447 3.33918 38.1447 3.59162V10.7214C38.1447 10.9745 37.9992 11.2048 37.7716 11.3122L31.5917 14.2283C31.4171 14.3107 31.2151 14.3106 31.0406 14.2279L24.7911 11.2653C24.564 11.1576 24.4191 10.9276 24.4191 10.6749V3.63811C24.4191 3.38608 24.5632 3.15658 24.7893 3.04855L31.0389 0.0629922Z" fill="#2176FF"/>
</svg>

<svg width="197" height="46" fill="none" xmlns="http://www.w3.org/2000/svg"><path d="M90.853 34.701v-17.14H84.14V13.58h18.281v3.983h-6.713V34.7h-4.855ZM104.352 34.701V18.467h4.465v4.587l-.629-1.328c.479-1.147 1.248-2.012 2.307-2.595 1.059-.604 2.348-.905 3.866-.905v4.345c-.2-.02-.379-.03-.539-.03-.16-.02-.33-.03-.51-.03-1.278 0-2.317.372-3.116 1.116-.78.724-1.169 1.86-1.169 3.41V34.7h-4.675ZM125.977 34.701v-3.168l-.3-.694v-5.673c0-1.006-.31-1.79-.929-2.354-.599-.563-1.528-.845-2.787-.845-.859 0-1.708.141-2.547.423-.819.261-1.519.623-2.098 1.086l-1.678-3.29c.879-.623 1.938-1.105 3.176-1.448a14.134 14.134 0 0 1 3.776-.512c2.458 0 4.366.583 5.724 1.75 1.359 1.166 2.038 2.987 2.038 5.461v9.264h-4.375Zm-4.915.241c-1.259 0-2.337-.21-3.237-.633-.899-.443-1.588-1.036-2.067-1.78a4.522 4.522 0 0 1-.72-2.505c0-.966.23-1.81.69-2.535.479-.724 1.228-1.287 2.247-1.69 1.019-.422 2.348-.633 3.986-.633h4.286v2.746h-3.776c-1.099 0-1.858.18-2.278.543-.4.362-.599.815-.599 1.358 0 .603.229 1.086.689 1.448.479.342 1.129.513 1.948.513.779 0 1.478-.181 2.098-.543.619-.382 1.068-.936 1.348-1.66l.719 2.173c-.339 1.046-.959 1.84-1.858 2.384-.899.543-2.057.814-3.476.814ZM134.583 34.701V18.467h4.675v16.234h-4.675Zm2.338-18.497c-.859 0-1.559-.252-2.098-.755a2.456 2.456 0 0 1-.809-1.87c0-.745.27-1.368.809-1.871.539-.503 1.239-.755 2.098-.755.859 0 1.558.242 2.098.725.539.462.809 1.066.809 1.81 0 .785-.27 1.439-.809 1.962-.52.502-1.219.754-2.098.754Z" fill="#fff"/><path d="M153.8 18c1.278 0 2.417.262 3.416.785 1.019.503 1.818 1.287 2.397 2.353.58 1.046.869 2.394.869 4.044v9.293h-4.675v-8.57c0-1.307-.289-2.272-.869-2.896-.559-.624-1.358-.935-2.397-.935-.739 0-1.409.16-2.008.482-.579.302-1.039.775-1.378 1.419-.32.643-.48 1.468-.48 2.474v8.026H144V18.241h4.465v4.496l-.839-1.357a6 6 0 0 1 2.487-2.505c1.079-.583 2.308-.875 3.687-.875ZM166.465 40.57c-.839 0-1.668-.13-2.487-.392-.819-.261-1.488-.623-2.008-1.086l1.708-3.35c.36.323.769.574 1.229.755.479.181.949.272 1.408.272.66 0 1.179-.161 1.559-.483.399-.302.759-.815 1.079-1.539l.839-1.992.359-.513 5.784-14h4.495l-7.282 17.23c-.519 1.307-1.119 2.333-1.798 3.077-.659.744-1.398 1.267-2.218 1.57-.799.3-1.688.452-2.667.452Zm2.757-5.46L162.03 18.24h4.825l5.574 13.579-3.207 3.29ZM191.701 34.475v-3.168l-.3-.694V24.94c0-1.006-.31-1.79-.929-2.353-.599-.564-1.528-.845-2.787-.845-.859 0-1.708.14-2.547.422-.819.262-1.519.624-2.098 1.086l-1.678-3.289c.879-.623 1.938-1.106 3.176-1.448a14.13 14.13 0 0 1 3.776-.513c2.458 0 4.366.583 5.724 1.75 1.359 1.167 2.038 2.987 2.038 5.462v9.263h-4.375Zm-4.915.242c-1.259 0-2.338-.211-3.237-.634-.899-.442-1.588-1.036-2.067-1.78a4.522 4.522 0 0 1-.72-2.505c0-.965.23-1.81.69-2.534.479-.724 1.228-1.288 2.247-1.69 1.019-.423 2.348-.634 3.986-.634h4.285v2.746h-3.776c-1.098 0-1.858.181-2.277.543-.4.362-.599.815-.599 1.358 0 .604.229 1.086.689 1.448.479.343 1.129.514 1.948.514.779 0 1.478-.182 2.097-.544.62-.382 1.069-.935 1.349-1.66l.719 2.173c-.339 1.046-.959 1.841-1.858 2.384-.899.543-2.058.815-3.476.815Z" fill="#2176FF"/><path fill-rule="evenodd" clip-rule="evenodd" d="M4.958 4.605a.648.648 0 0 1 .61-.431H22.7a.65.65 0 0 1 .648.652v6.707l7.986 3.79 8.02-3.79V4.825c0-.36.29-.652.647-.652h17.063c.274 0 .517.172.61.43l4.92 13.71a.654.654 0 0 1-.336.813l-17.64 8.288-12.754 18.307a.646.646 0 0 1-1.061 0L18.048 27.416.375 19.126a.654.654 0 0 1-.336-.813l4.92-13.708Zm.935.687-4.666 13 17.403 8.162a.65.65 0 0 1 .257.217l12.447 17.865L43.781 26.67a.65.65 0 0 1 .256-.217l17.369-8.16L56.74 5.291H40.465v6.536a.653.653 0 0 1-.373.591l-8.482 4.01a.644.644 0 0 1-.552-.001l-8.448-4.01a.653.653 0 0 1-.372-.59V5.292H5.893Z" fill="#2176FF"/><path fill-rule="evenodd" clip-rule="evenodd" d="M20.275 27.15a.187.187 0 0 1 .045-.26l.606-.43c.084-.059.2-.038.258.046l9.98 14.29c.074.105.23.105.303 0l9.936-14.289a.184.184 0 0 1 .257-.046l.607.428a.187.187 0 0 1 .046.26L31.469 42.743a.184.184 0 0 1-.303 0L20.276 27.15ZM55.358 7.458a.185.185 0 0 0-.175-.127h-6.576a.186.186 0 0 1-.185-.186v-.746c0-.103.082-.186.185-.186h7.37c.08 0 .15.05.176.126l1.345 3.968a.187.187 0 0 1-.116.237l-.7.24a.185.185 0 0 1-.236-.116l-1.088-3.21ZM2.498 17.862a.187.187 0 0 1-.096-.236l1.503-3.958a.185.185 0 0 1 .24-.107l.691.266a.187.187 0 0 1 .107.24L3.811 17.05a.187.187 0 0 0 .095.236l5.53 2.58a.187.187 0 0 1 .09.248l-.312.677a.185.185 0 0 1-.246.09l-6.47-3.019ZM31.317 1.168 25.53 3.933v6.446l5.787 2.744 5.717-2.698V3.887l-5.717-2.719ZM31.04.063a.644.644 0 0 1 .554 0l6.18 2.939a.653.653 0 0 1 .372.59v7.13a.653.653 0 0 1-.373.59l-6.18 2.916a.644.644 0 0 1-.551 0l-6.25-2.963a.653.653 0 0 1-.372-.59V3.638c0-.252.144-.481.37-.59L31.04.064Z" fill="#2176FF"/></svg>
